X:100
T: Die Todesbraut
N: Q2049L
O: Suedosteuropa, Griechenland
N: Griechische Fassung der Ballade. Pause (Wiederholung) korrigiert.
R: Ballade, Hochzeit, Unfall, Tod
M: 7/8
L: 1/8
K: G
c | c4G2=F | G2_AB2A2 | G4-Gz2 |
G2_AA=F3 | G2_ABA=F2 | G4-Gz2 |
G2_AA=F3 | G2_ABA=F2 | G4-Gz

@@@ Tune index: 836
